svg/fluentui-system-icons/ic_fluent_bug_arrow_counterclockwise_20_regular.svg

<svg width="20" height="20" viewBox="0 0 20 20" fill="none" xmlns="http://www.w3.org/2000/svg">
<path d="M17 3.5C17 3.36739 16.9473 3.24021 16.8536 3.14645C16.7598 3.05268 16.6326 3 16.5 3C16.3674 3 16.2402 3.05268 16.1464 3.14645C16.0527 3.24021 16 3.36739 16 3.5V5.5C16 5.89782 15.842 6.27936 15.5607 6.56066C15.2794 6.84196 14.8978 7 14.5 7H14C14.0003 6.32323 13.7717 5.66624 13.3515 5.13577C12.9312 4.60531 12.3439 4.23253 11.685 4.078C11.8911 3.75627 12.0005 3.38209 12 3V2.5C12 2.36739 11.9473 2.24021 11.8536 2.14645C11.7598 2.05268 11.6326 2 11.5 2C11.3674 2 11.2402 2.05268 11.1464 2.14645C11.0527 2.24021 11 2.36739 11 2.5V3C11 3.26522 10.8946 3.51957 10.7071 3.70711C10.5196 3.89464 10.2652 4 10 4C9.73478 4 9.48043 3.89464 9.29289 3.70711C9.10536 3.51957 9 3.26522 9 3V2.5C9 2.36739 8.94732 2.24021 8.85355 2.14645C8.75979 2.05268 8.63261 2 8.5 2C8.36739 2 8.24021 2.05268 8.14645 2.14645C8.05268 2.24021 8 2.36739 8 2.5V3C7.99955 3.38209 8.10888 3.75627 8.315 4.078C7.6561 4.23253 7.06882 4.60531 6.64855 5.13577C6.22828 5.66624 5.99972 6.32323 6 7H5.5C5.10218 7 4.72064 6.84196 4.43934 6.56066C4.15804 6.27936 4 5.89782 4 5.5V3.5C4 3.36739 3.94732 3.24021 3.85355 3.14645C3.75979 3.05268 3.63261 3 3.5 3C3.36739 3 3.24021 3.05268 3.14645 3.14645C3.05268 3.24021 3 3.36739 3 3.5V5.5C3 6.16304 3.26339 6.79893 3.73223 7.26777C4.20107 7.73661 4.83696 8 5.5 8H6V9.5H2.5C2.36739 9.5 2.24021 9.55268 2.14645 9.64645C2.05268 9.74021 2 9.86739 2 10C2 10.1326 2.05268 10.2598 2.14645 10.3536C2.24021 10.4473 2.36739 10.5 2.5 10.5H6V12H5.5C4.83696 12 4.20107 12.2634 3.73223 12.7322C3.26339 13.2011 3 13.837 3 14.5V16.5C3 16.6326 3.05268 16.7598 3.14645 16.8536C3.24021 16.9473 3.36739 17 3.5 17C3.63261 17 3.75979 16.9473 3.85355 16.8536C3.94732 16.7598 4 16.6326 4 16.5V14.5C4 14.1022 4.15804 13.7206 4.43934 13.4393C4.72064 13.158 5.10218 13 5.5 13H6C6.00198 13.9867 6.36985 14.9376 7.03244 15.6687C7.69504 16.3998 8.60526 16.8592 9.587 16.958C9.41319 16.6115 9.27676 16.2474 9.18 15.872C8.5536 15.6957 8.00182 15.3199 7.60838 14.8016C7.21495 14.2833 7.00135 13.6507 7 13V7C7 6.46957 7.21071 5.96086 7.58579 5.58579C7.96086 5.21071 8.46957 5 9 5H11C11.5304 5 12.0391 5.21071 12.4142 5.58579C12.7893 5.96086 13 6.46957 13 7V9.213C13.3269 9.12006 13.6616 9.05714 14 9.025V8H14.5C15.163 8 15.7989 7.73661 16.2678 7.26777C16.7366 6.79893 17 6.16304 17 5.5V3.5ZM14.5 10C13.61 10 12.74 10.2639 11.9999 10.7584C11.2599 11.2529 10.6831 11.9557 10.3425 12.7779C10.0019 13.6002 9.91283 14.505 10.0865 15.3779C10.2601 16.2508 10.6887 17.0526 11.318 17.682C11.9474 18.3113 12.7492 18.7399 13.6221 18.9135C14.495 19.0872 15.3998 18.9981 16.2221 18.6575C17.0443 18.3169 17.7471 17.7401 18.2416 17.0001C18.7361 16.26 19 15.39 19 14.5C19 13.9091 18.8836 13.3239 18.6575 12.7779C18.4313 12.232 18.0998 11.7359 17.682 11.318C17.2641 10.9002 16.768 10.5687 16.2221 10.3425C15.6761 10.1164 15.0909 10 14.5 10ZM14.5 17.25C14.113 17.2504 13.7302 17.1689 13.3769 17.0108C13.0236 16.8528 12.7077 16.6218 12.45 16.333C12.4033 16.2846 12.3669 16.2273 12.3429 16.1644C12.3189 16.1016 12.3078 16.0346 12.3103 15.9674C12.3128 15.9002 12.3288 15.8342 12.3574 15.7733C12.386 15.7125 12.4266 15.658 12.4767 15.6132C12.5268 15.5684 12.5855 15.5341 12.6492 15.5125C12.7129 15.4909 12.7802 15.4823 12.8473 15.4874C12.9144 15.4924 12.9797 15.5109 13.0395 15.5417C13.0992 15.5726 13.1521 15.6152 13.195 15.667C13.4162 15.9146 13.7034 16.0941 14.0228 16.1846C14.3423 16.2751 14.6809 16.2729 14.9991 16.1782C15.3173 16.0835 15.6021 15.9002 15.82 15.6497C16.038 15.3992 16.1802 15.0919 16.23 14.7636C16.2799 14.4354 16.2353 14.0997 16.1016 13.7958C15.9678 13.4919 15.7503 13.2324 15.4745 13.0474C15.1988 12.8625 14.8761 12.7599 14.5442 12.7515C14.2122 12.7431 13.8848 12.8293 13.6 13H14C14.1326 13 14.2598 13.0527 14.3536 13.1464C14.4473 13.2402 14.5 13.3674 14.5 13.5C14.5 13.6326 14.4473 13.7598 14.3536 13.8536C14.2598 13.9473 14.1326 14 14 14H12.5C12.422 14.0026 12.3445 13.9869 12.2737 13.9542C12.2029 13.9216 12.1407 13.8727 12.0921 13.8117C12.0435 13.7507 12.0099 13.6791 11.9939 13.6028C11.9779 13.5264 11.98 13.4474 12 13.372V12C12 11.8674 12.0527 11.7402 12.1464 11.6464C12.2402 11.5527 12.3674 11.5 12.5 11.5C12.6326 11.5 12.7598 11.5527 12.8536 11.6464C12.9473 11.7402 13 11.8674 13 12V12.194C13.3588 11.9609 13.767 11.8147 14.1922 11.7671C14.6174 11.7195 15.0478 11.7717 15.4493 11.9197C15.8507 12.0676 16.2121 12.3072 16.5047 12.6194C16.7973 12.9315 17.013 13.3077 17.1347 13.7178C17.2564 14.128 17.2807 14.5609 17.2057 14.9822C17.1307 15.4034 16.9584 15.8013 16.7026 16.1442C16.4468 16.4872 16.1145 16.7657 15.7321 16.9577C15.3497 17.1496 14.9279 17.2497 14.5 17.25Z" fill="#212121"/>
</svg>

<svg xmlns="http://www.w3.org/2000/svg" width="20" height="20"><path d="M17 3.5a.5.5 0 0 0-1 0v2A1.5 1.5 0 0 1 14.5 7H14a3 3 0 0 0-2.315-2.922c.206-.322.316-.696.315-1.078v-.5a.5.5 0 0 0-1 0V3a1 1 0 0 1-2 0v-.5a.5.5 0 1 0-1 0V3a2 2 0 0 0 .315 1.078A3 3 0 0 0 6 7h-.5A1.5 1.5 0 0 1 4 5.5v-2a.5.5 0 1 0-1 0v2A2.5 2.5 0 0 0 5.5 8H6v1.5H2.5a.5.5 0 1 0 0 1H6V12h-.5A2.5 2.5 0 0 0 3 14.5v2a.5.5 0 0 0 1 0v-2A1.5 1.5 0 0 1 5.5 13H6a3.986 3.986 0 0 0 3.587 3.958 5.464 5.464 0 0 1-.407-1.086A2.99 2.99 0 0 1 7 13V7a2 2 0 0 1 2-2h2a2 2 0 0 1 2 2v2.213a5.589 5.589 0 0 1 1-.188V8h.5A2.5 2.5 0 0 0 17 5.5v-2ZM14.5 10a4.5 4.5 0 1 0 0 9 4.5 4.5 0 0 0 0-9Zm0 7.25a2.743 2.743 0 0 1-2.05-.917.499.499 0 1 1 .745-.666A1.75 1.75 0 1 0 13.6 13h.4a.5.5 0 0 1 0 1h-1.5a.5.5 0 0 1-.5-.628V12a.5.5 0 0 1 1 0v.194a2.75 2.75 0 1 1 1.5 5.056Z"/></svg>
